X:1
T:Seneca Square Dance - G
S:Sam Long (Oklahoma)
M:C|
L:1/8
Q:Quick
D:County CD 3506, Sam Long - Echoes of the Ozarks (1995)  
F:https://www.slippery-hill.com/recording/seneca-square-dance
Z:Transcribed by Andrew Kuntz
K:G
G2A2|B2B4B2| d2B2 AG3|B4 B3d|BA3 G4|
|:ef|g2{f}g4e2|d2B4ef|ggf2 g3a|b2e4g2-|

